dist/img/footer/instagram.svg

<svg width="26" height="26" viewBox="0 0 26 26" fill="none" xmlns="http://www.w3.org/2000/svg">
<path d="M13 2C10.0149 2 9.6395 2.01375 8.46663 2.066C7.29375 2.121 6.49487 2.30525 5.795 2.5775C5.06088 2.85363 4.39593 3.28676 3.84663 3.84663C3.2871 4.39621 2.85402 5.06108 2.5775 5.795C2.30525 6.4935 2.11963 7.29375 2.066 8.4625C2.01375 9.63812 2 10.0121 2 13.0014C2 15.9879 2.01375 16.3619 2.066 17.5347C2.121 18.7063 2.30525 19.5051 2.5775 20.205C2.85938 20.9282 3.23475 21.5415 3.84663 22.1534C4.45713 22.7652 5.07037 23.142 5.79363 23.4225C6.49487 23.6947 7.29238 23.8804 8.46388 23.934C9.63813 23.9862 10.0121 24 13 24C15.9879 24 16.3605 23.9862 17.5347 23.934C18.7049 23.879 19.5065 23.6947 20.2064 23.4225C20.94 23.1462 21.6045 22.7131 22.1534 22.1534C22.7652 21.5415 23.1406 20.9282 23.4225 20.205C23.6934 19.5051 23.879 18.7063 23.934 17.5347C23.9862 16.3619 24 15.9879 24 13C24 10.0121 23.9862 9.63813 23.934 8.46388C23.879 7.29375 23.6934 6.4935 23.4225 5.795C23.146 5.06106 22.7129 4.39618 22.1534 3.84663C21.6042 3.28655 20.9392 2.85339 20.205 2.5775C19.5037 2.30525 18.7035 2.11963 17.5334 2.066C16.3591 2.01375 15.9865 2 12.9973 2H13.0014H13ZM12.0141 3.98275H13.0014C15.9384 3.98275 16.2863 3.99238 17.4454 4.046C18.5179 4.09413 19.1009 4.27425 19.4886 4.42412C20.0015 4.6235 20.3686 4.86275 20.7536 5.24775C21.1386 5.63275 21.3765 5.9985 21.5759 6.51275C21.7271 6.89913 21.9059 7.48213 21.954 8.55463C22.0076 9.71375 22.0186 10.0616 22.0186 12.9973C22.0186 15.9329 22.0076 16.2821 21.954 17.4412C21.9059 18.5138 21.7257 19.0954 21.5759 19.4831C21.3995 19.9607 21.118 20.3926 20.7522 20.7467C20.3672 21.1318 20.0015 21.3696 19.4873 21.569C19.1023 21.7203 18.5192 21.899 17.4454 21.9485C16.2863 22.0007 15.9384 22.0131 13.0014 22.0131C10.0644 22.0131 9.71513 22.0007 8.556 21.9485C7.4835 21.899 6.90188 21.7203 6.51412 21.569C6.03631 21.3929 5.60405 21.1119 5.24913 20.7467C4.88303 20.392 4.60112 19.9598 4.42412 19.4818C4.27425 19.0954 4.09413 18.5124 4.046 17.4399C3.99375 16.2808 3.98275 15.9329 3.98275 12.9945C3.98275 10.0575 3.99375 9.711 4.046 8.55187C4.0955 7.47937 4.27425 6.89638 4.4255 6.50863C4.62488 5.99575 4.86412 5.62862 5.24913 5.24362C5.63412 4.85862 5.99988 4.62075 6.51412 4.42138C6.90188 4.27013 7.4835 4.09138 8.556 4.04188C9.57075 3.99513 9.964 3.98138 12.0141 3.98V3.98275ZM18.8726 5.80875C18.6993 5.80875 18.5276 5.84289 18.3675 5.90923C18.2073 5.97557 18.0618 6.0728 17.9392 6.19537C17.8167 6.31794 17.7194 6.46346 17.6531 6.62361C17.5868 6.78376 17.5526 6.95541 17.5526 7.12875C17.5526 7.30209 17.5868 7.47374 17.6531 7.63389C17.7194 7.79404 17.8167 7.93956 17.9392 8.06213C18.0618 8.1847 18.2073 8.28193 18.3675 8.34827C18.5276 8.41461 18.6993 8.44875 18.8726 8.44875C19.2227 8.44875 19.5585 8.30968 19.806 8.06213C20.0536 7.81458 20.1926 7.47884 20.1926 7.12875C20.1926 6.77866 20.0536 6.44292 19.806 6.19537C19.5585 5.94782 19.2227 5.80875 18.8726 5.80875ZM13.0014 7.3515C12.2521 7.33981 11.508 7.47729 10.8123 7.75594C10.1167 8.0346 9.48346 8.44885 8.94946 8.97458C8.41546 9.50032 7.99138 10.127 7.70191 10.8182C7.41244 11.5094 7.26336 12.2513 7.26336 13.0007C7.26336 13.7501 7.41244 14.4919 7.70191 15.1831C7.99138 15.8743 8.41546 16.5011 8.94946 17.0268C9.48346 17.5525 10.1167 17.9668 10.8123 18.2454C11.508 18.5241 12.2521 18.6616 13.0014 18.6499C14.4844 18.6267 15.8988 18.0214 16.9393 16.9645C17.9799 15.9076 18.5631 14.4839 18.5631 13.0007C18.5631 11.5175 17.9799 10.0938 16.9393 9.03691C15.8988 7.97999 14.4844 7.37464 13.0014 7.3515ZM13.0014 9.33288C13.974 9.33288 14.9067 9.71923 15.5944 10.407C16.2821 11.0947 16.6685 12.0274 16.6685 13C16.6685 13.9726 16.2821 14.9053 15.5944 15.593C14.9067 16.2808 13.974 16.6671 13.0014 16.6671C12.0288 16.6671 11.096 16.2808 10.4083 15.593C9.72061 14.9053 9.33425 13.9726 9.33425 13C9.33425 12.0274 9.72061 11.0947 10.4083 10.407C11.096 9.71923 12.0288 9.33288 13.0014 9.33288Z" fill="white"/>
</svg>

<svg width="26" height="26" fill="none" xmlns="http://www.w3.org/2000/svg"><path d="M13 2c-2.985 0-3.36.014-4.533.066-1.173.055-1.972.24-2.672.512-.734.276-1.4.709-1.948 1.269a5.4 5.4 0 00-1.27 1.948c-.272.699-.457 1.499-.511 2.668C2.014 9.638 2 10.013 2 13c0 2.987.014 3.36.066 4.534.055 1.171.24 1.97.512 2.67a5.403 5.403 0 001.269 1.948c.61.612 1.223.989 1.947 1.27.7.272 1.498.457 2.67.511C9.638 23.986 10.012 24 13 24c2.988 0 3.36-.014 4.535-.066 1.17-.055 1.971-.24 2.671-.512a5.386 5.386 0 001.947-1.269 5.404 5.404 0 001.27-1.948c.27-.7.456-1.499.511-2.67.052-1.173.066-1.547.066-4.535 0-2.988-.014-3.362-.066-4.536-.055-1.17-.24-1.97-.512-2.669a5.4 5.4 0 00-1.269-1.948 5.379 5.379 0 00-1.948-1.27c-.701-.272-1.502-.457-2.672-.511C16.36 2.014 15.986 2 12.997 2h.004H13zm-.986 1.983h.987c2.937 0 3.285.01 4.444.063 1.073.048 1.656.228 2.044.378.512.2.88.439 1.265.824a3.4 3.4 0 01.822 1.265c.151.386.33.97.378 2.042.054 1.159.065 1.507.065 4.442 0 2.936-.011 3.285-.065 4.444-.048 1.073-.228 1.654-.378 2.042-.177.478-.458.91-.824 1.264-.385.385-.75.623-1.265.822-.385.151-.968.33-2.042.38-1.159.052-1.507.064-4.444.064-2.937 0-3.286-.012-4.445-.065-1.072-.049-1.654-.228-2.042-.379a3.407 3.407 0 01-1.265-.822 3.41 3.41 0 01-.825-1.265c-.15-.387-.33-.97-.378-2.042-.052-1.16-.063-1.507-.063-4.446 0-2.937.01-3.283.063-4.442.05-1.073.228-1.656.38-2.043.199-.513.438-.88.823-1.265.385-.385.75-.623 1.265-.823.388-.15.97-.33 2.042-.38 1.015-.046 1.408-.06 3.458-.061v.003zm6.859 1.826a1.32 1.32 0 100 2.64 1.32 1.32 0 000-2.64zM13 7.35a5.65 5.65 0 10-.176 11.3 5.65 5.65 0 00.176-11.3zm0 1.982a3.667 3.667 0 110 7.333 3.667 3.667 0 010-7.333z" fill="#fff"/></svg>
